src/img/default_.svg

<svg width="100" height="75" viewBox="0 0 100 75" fill="none" xmlns="http://www.w3.org/2000/svg">
<path d="M8.62061 60.8335C21.1679 48.6823 25.7569 44.4872 26.483 43.9086C27.4996 43.4746 30.3169 42.867 33.4538 43.9086C36.5906 44.9501 45.2168 55.0472 49.1378 59.9656" stroke="black" stroke-width="2"/>
<path d="M36.207 45.8334L55.8047 27.3254C58.4771 24.9418 65.2473 21.6048 70.9484 27.3254C76.6496 33.0461 85.7952 42.0477 89.6553 45.8334" stroke="black" stroke-width="2"/>
<path d="M31.0342 65.8333C41.7451 61.6666 68.4646 53.3333 89.6549 53.3333" stroke="black" stroke-width="2"/>
<rect x="1" y="1" width="98" height="73" rx="2" stroke="black" stroke-width="2"/>
<rect x="8.75879" y="9.3335" width="80.7586" height="56.3333" stroke="black" stroke-width="2"/>
<path d="M31.7589 25.8334C31.7589 28.9313 29.1512 31.5001 25.8624 31.5001C22.5736 31.5001 19.9658 28.9313 19.9658 25.8334C19.9658 22.7355 22.5736 20.1667 25.8624 20.1667C29.1512 20.1667 31.7589 22.7355 31.7589 25.8334Z" stroke="black" stroke-width="2"/>
</svg>

<svg xmlns="http://www.w3.org/2000/svg" fill="none" viewBox="0 0 100 75"><path stroke="#000" stroke-width="2" d="M8.62 60.834c12.548-12.152 17.137-16.347 17.863-16.925 1.017-.434 3.834-1.042 6.97 0 3.138 1.041 11.764 11.138 15.685 16.057"/><path stroke="#000" stroke-width="2" d="M36.207 45.833l19.598-18.508c2.672-2.383 9.442-5.72 15.143 0 5.702 5.721 14.847 14.723 18.707 18.508M31.034 65.833c10.711-4.166 37.43-12.5 58.62-12.5"/><rect width="98" height="73" x="1" y="1" stroke="#000" stroke-width="2" rx="2"/><path stroke="#000" stroke-width="2" d="M8.759 9.334h80.759v56.333H8.759z"/><path stroke="#000" stroke-width="2" d="M31.759 25.833c0 3.098-2.608 5.667-5.897 5.667-3.288 0-5.896-2.569-5.896-5.667s2.608-5.666 5.896-5.666c3.29 0 5.897 2.568 5.897 5.666z"/></svg>
